icons/play.svg

<svg xmlns="http://www.w3.org/2000/svg" width="96" height="96"><path d="M81.4 53.5L52 71.1 21.1 89l-2 .6c-.5.1-1.1.2-1.7.1-1.5-.2-3-1-4-2.2-1-1.3-1.5-2.8-1.4-4.4V12.9c-.1-1.6.4-3.1 1.4-4.4 1-1.2 2.5-2 4-2.2.6-.1 1.2 0 1.7.1l2 .6L52 24.9l29.4 17.6c2.1 1 3.5 3.1 3.6 5.5-.1 2.4-1.5 4.5-3.6 5.5zM20 15.7l28 16.1L76 48 48 64.2 20 80.3V15.7z" fill-rule="evenodd" fill="#454545"/></svg>

<?xml version="1.0" standalone="no"?><!-- Generator: Gravit.io --><svg xmlns="http://www.w3.org/2000/svg" xmlns:xlink="http://www.w3.org/1999/xlink" width="96" height="96"><path d=" M 81.4 53.5 L 52 71.1 L 21.1 89 L 19.1 89.6 C 18.6 89.7 18 89.8 17.4 89.7 C 15.9 89.5 14.4 88.7 13.4 87.5 C 12.4 86.2 11.9 84.7 12 83.1 L 12 48 L 12 12.9 C 11.9 11.3 12.4 9.8 13.4 8.5 C 14.4 7.3 15.9 6.5 17.4 6.3 C 18 6.2 18.6 6.3 19.1 6.4 L 21.1 7 L 52 24.9 L 81.4 42.5 C 83.5 43.5 84.9 45.6 85 48 C 84.9 50.4 83.5 52.5 81.4 53.5 Z  M 20 15.7 L 48 31.8 L 76 48 L 48 64.2 L 20 80.3 L 20 48 L 20 15.7 Z " fill-rule="evenodd" fill="#454545" stroke="none"/><mask id="_mask_keavdAOz8YUYb1osdR8bDApASfGEGkTT"><path d=" M 81.4 53.5 L 52 71.1 L 21.1 89 L 19.1 89.6 C 18.6 89.7 18 89.8 17.4 89.7 C 15.9 89.5 14.4 88.7 13.4 87.5 C 12.4 86.2 11.9 84.7 12 83.1 L 12 48 L 12 12.9 C 11.9 11.3 12.4 9.8 13.4 8.5 C 14.4 7.3 15.9 6.5 17.4 6.3 C 18 6.2 18.6 6.3 19.1 6.4 L 21.1 7 L 52 24.9 L 81.4 42.5 C 83.5 43.5 84.9 45.6 85 48 C 84.9 50.4 83.5 52.5 81.4 53.5 Z  M 20 15.7 L 48 31.8 L 76 48 L 48 64.2 L 20 80.3 L 20 48 L 20 15.7 Z " fill-rule="evenodd" fill="white" stroke="none"/></mask><path d=" M 81.4 53.5 L 52 71.1 L 21.1 89 L 19.1 89.6 C 18.6 89.7 18 89.8 17.4 89.7 C 15.9 89.5 14.4 88.7 13.4 87.5 C 12.4 86.2 11.9 84.7 12 83.1 L 12 48 L 12 12.9 C 11.9 11.3 12.4 9.8 13.4 8.5 C 14.4 7.3 15.9 6.5 17.4 6.3 C 18 6.2 18.6 6.3 19.1 6.4 L 21.1 7 L 52 24.9 L 81.4 42.5 C 83.5 43.5 84.9 45.6 85 48 C 84.9 50.4 83.5 52.5 81.4 53.5 Z  M 20 15.7 L 48 31.8 L 76 48 L 48 64.2 L 20 80.3 L 20 48 L 20 15.7 Z " fill-rule="evenodd" fill="none" stroke="none" stroke-width="16" mask="url(#_mask_keavdAOz8YUYb1osdR8bDApASfGEGkTT)"/></svg>
